icons/line/save.svg

<svg width="24" height="24" viewBox="0 0 24 24" fill="none" xmlns="http://www.w3.org/2000/svg">
<path d="M9 20H6C4.89543 20 4 19.1046 4 18V6C4 4.89543 4.89543 4 6 4H15.1716C15.702 4 16.2107 4.21071 16.5858 4.58579L19.4142 7.41421C19.7893 7.78929 20 8.29799 20 8.82843V18C20 19.1046 19.1046 20 18 20H15M9 20V16C9 14.8954 9.89543 14 11 14H13C14.1046 14 15 14.8954 15 16V20M9 20H15M9 9H12" stroke="currentColor" stroke-width="2" stroke-linecap="round" stroke-linejoin="round"/>
</svg>

<svg width="24" height="24" fill="none" xmlns="http://www.w3.org/2000/svg"><path d="M9 20H6a2 2 0 01-2-2V6a2 2 0 012-2h9.172a2 2 0 011.414.586l2.828 2.828A2 2 0 0120 8.828V18a2 2 0 01-2 2h-3m-6 0v-4a2 2 0 012-2h2a2 2 0 012 2v4m-6 0h6M9 9h3" stroke="currentColor" stroke-width="2" stroke-linecap="round" stroke-linejoin="round"/></svg>
